X: 0
T: Monymusk
T: 8 x 32S 3C (RSCDS 11-2)
C: attrib. to Daniel Dow (1775)
C: Hunter Collection, arr. T. Traub 8-23-06
R: strathspey
K: G
P: Sir Archibald Grant of Monymusk's Reel
M: 4/4
L: 1/8
|: e|"G"d<GB>G d>G"C"c>e|"G"d<GB>G "D"A/B/A "C"c>e|"G"d<GB>G B/c/d d>g|"C"e>c"D"A>d "G"B<G G :|
f|"G"g2 d>g B>g"D"d>f|"G"g>d"C"c>g "G"B>g"D"A>f|"G"g>d"C"e>g "G"d>gB>g|"C"e>c"D"A>d "G"B<GG>f|
"G"g>dd>g B>g"D"d>f|"G"g>d"C"c>g "G"B>g"D"A>f|"G"g>d"C"e>g "G"d>g"D"c<g|"G"B<g"D"A>c "G"B<G G |]
